src/components/stable/gux-icon/icons/cjv-form-submitted.svg

<svg viewBox="0 0 40 40" version="1.1" xmlns="http://www.w3.org/2000/svg" xmlns:xlink="http://www.w3.org/1999/xlink">
    <title>Form Submitted</title>
    <g stroke="none" stroke-width="1" fill="none" fill-rule="evenodd">
        <g id="cjv-form-submitted">
            <circle id="Oval" fill="#FFFFFF" cx="20" cy="20" r="20"/>
            <g id="cjv-form-submitted﻿" fill="#444A52">
                <path d="M20,40 C31.0457,40 40,31.0457 40,20 C40,8.9543 31.0457,0 20,0 C8.9543,0 0,8.9543 0,20 C0,31.0457 8.9543,40 20,40 Z M29,16.5631 L21.5863,16.5631 C21.241,16.5631 20.9098,16.4288 20.6649,16.1896 C20.4201,15.9504 20.2815,15.6257 20.2794,15.2864 L20.2794,8 L12.3069,8 C11.9603,8 11.6279,8.1353 11.3828,8.3762 C11.1377,8.6171 11,8.9438 11,9.2845 L11,30.7155 C11,31.0562 11.1377,31.3829 11.3828,31.6238 C11.6279,31.8647 11.9603,32 12.3069,32 L27.6931,32 C28.0397,32 28.3721,31.8647 28.6172,31.6238 C28.8623,31.3829 29,31.0562 29,30.7155 L29,16.5631 Z M22.513,8.9186 C22.3647,8.7711 22.1999,8.6406 22.0219,8.5294 L22.0219,14.8505 L28.4535,14.8505 C28.3406,14.6753 28.2077,14.5134 28.0574,14.3678 L22.513,8.9186 Z" id="Shape"/>
                <path d="M19,19 C19,18.4477 19.4477,18 20,18 C20.5523,18 21,18.4477 21,19 L21,28 C21,28.5523 20.5523,29 20,29 C19.4477,29 19,28.5523 19,28 L19,19 Z" id="Path" fill-rule="nonzero"/>
                <path d="M19.2929,18.2929 C19.6834,17.9024 20.3166,17.9024 20.7071,18.2929 L23.7071,21.2929 C24.0976,21.6834 24.0976,22.3166 23.7071,22.7071 C23.3166,23.0976 22.6834,23.0976 22.2929,22.7071 L20,20.4142 L17.7071,22.7071 C17.3166,23.0976 16.6834,23.0976 16.2929,22.7071 C15.9024,22.3166 15.9024,21.6834 16.2929,21.2929 L19.2929,18.2929 Z" id="Path"/>
            </g>
        </g>
    </g>
</svg>

<svg viewBox="0 0 40 40" xmlns="http://www.w3.org/2000/svg"><g fill="none" fill-rule="evenodd"><circle fill="#FFF" cx="20" cy="20" r="20"/><g fill="#444A52"><path d="M20 40c11.046 0 20-8.954 20-20S31.046 0 20 0 0 8.954 0 20s8.954 20 20 20zm9-23.437h-7.414c-.345 0-.676-.134-.921-.373a1.274 1.274 0 01-.386-.904V8h-7.972c-.347 0-.68.135-.924.376a1.275 1.275 0 00-.383.909v21.43c0 .341.138.668.383.909.245.24.577.376.924.376h15.386c.347 0 .68-.135.924-.376.245-.241.383-.568.383-.909V16.563zM22.513 8.92a2.8 2.8 0 00-.491-.39v6.322h6.431a2.734 2.734 0 00-.396-.483l-5.544-5.45z"/><path d="M19 19a1 1 0 112 0v9a1 1 0 11-2 0v-9z" fill-rule="nonzero"/><path d="M19.293 18.293a1 1 0 011.414 0l3 3a1 1 0 01-1.414 1.414L20 20.414l-2.293 2.293a1 1 0 01-1.414-1.414l3-3z"/></g></g></svg>
